X:1
T: Love Lies A-Bleeding
N:
C:
S:
A:
O:
R:
M:4/4
K:Am
I:speed 210
%W: A
% voice 1 (1 lines, 25 notes)
K:Am
M:4/4
L:1/16
z4 |A2 B2 c2 d2 e4 A4 |a4 ^g2 a2 b4 e4 |c'4 b2 a2 g2 f2 e2 e2 |d2 e2 c2 d2 B4 A4 |
%W:
% voice 1 (1 lines, 25 notes)
A2 B2 c2 d2 e4 A4 |a4 ^g2 a2 b4 e4 |c'4 b2 a2 g2 f2 e2 e2 |d2 e2 c2 d2 B4 A2 B2 |
%W: B
% voice 1 (1 lines, 25 notes)
c4 A3 c d4 G3 d |c4 A3 e d4 c4 |g4 g3 f e3 d c3 c |d3 e c3 d B4 A2 B2 |
%W:
% voice 1 (1 lines, 24 notes)
c4 A3 c d4 G3 d |c4 A3 e d4 c4 |g4 g3 f e3 d c3 c |d3 e c3 d A4 A2 ||
